assets/icons/home.svg

<?xml version="1.0" encoding="utf-8"?><!-- Uploaded to: SVG Repo, www.svgrepo.com, Generator: SVG Repo Mixer Tools -->
<svg width="800px" height="800px" viewBox="0 0 24 24" fill="none" xmlns="http://www.w3.org/2000/svg">
<path d="M9 16C9.85038 16.6303 10.8846 17 12 17C13.1154 17 14.1496 16.6303 15 16" stroke="#1C274C" stroke-width="1.5" stroke-linecap="round"/>
<path d="M21.6359 12.9579L21.3572 14.8952C20.8697 18.2827 20.626 19.9764 19.451 20.9882C18.2759 22 16.5526 22 13.1061 22H10.8939C7.44737 22 5.72409 22 4.54903 20.9882C3.37396 19.9764 3.13025 18.2827 2.64284 14.8952L2.36407 12.9579C1.98463 10.3208 1.79491 9.00229 2.33537 7.87495C2.87583 6.7476 4.02619 6.06234 6.32691 4.69181L7.71175 3.86687C9.80104 2.62229 10.8457 2 12 2C13.1543 2 14.199 2.62229 16.2882 3.86687L17.6731 4.69181C19.9738 6.06234 21.1242 6.7476 21.6646 7.87495" stroke="#1C274C" stroke-width="1.5" stroke-linecap="round"/>
</svg>

<svg xmlns="http://www.w3.org/2000/svg" width="800" height="800" fill="none" viewBox="0 0 24 24"><path stroke="#1C274C" stroke-linecap="round" stroke-width="1.5" d="M9 16c.85.63 1.885 1 3 1s2.15-.37 3-1"/><path stroke="#1C274C" stroke-linecap="round" stroke-width="1.5" d="m21.636 12.958-.279 1.937c-.487 3.388-.731 5.081-1.906 6.093S16.553 22 13.106 22h-2.212c-3.447 0-5.17 0-6.345-1.012s-1.419-2.705-1.906-6.093l-.279-1.937c-.38-2.637-.57-3.956-.029-5.083s1.691-1.813 3.992-3.183l1.385-.825C9.8 2.622 10.846 2 12 2s2.199.622 4.288 1.867l1.385.825c2.3 1.37 3.451 2.056 3.992 3.183"/></svg>
